X: 1
T: MacIsaac's
R: reel
M: 4/4
L: 1/8
K: Ador
 gf|: eABG AAGA|BGAB AGAB|eABG ABGB|dBgB AAAg:|
g|edeg aged|eA ~B2 dGGg|edeg aged|eABG BAAg|
edeg aged|eA ~B2 dGGg|eABG ABGB|dBgB A3||